X: 120
T:Cuckoo's Nest,The
T:Come Ashore Jolly Tar
M:C|
L:1/8
S:George Spencer m/s, Leeds,1831
R:Hornpipe
O:England
A:Leeds
H:1831
Z:vmp.Cherri Graebe
K:D
DE|"D"FEFD fefd|"A"cAGF "G"GBAG|"D"F2ED CDEF|"A"G2E2 E2AG|!
"D"FEFD fefd|"A"cAGF "G"GBAG|"D"F2ED "A"CDEG|"D"F2D2 D2:|!
|:A2|"D"d2>e2 dfed|"A"c2A2 A2AB|"C"=c2>d2 cedc|"G"B2G2 G2A2|!
"D"dcde f2ed|"A"cAGF "G"GBAG|"D"F2ED "A"CDEG|"D"F2D2 D2:|!
|:FG|"D"AFDF AFDF|AGFE D2EF|"A"GECE GECE|GFED C2DE|!
"D"FEFD f2ed|"A"cAGF "G"GBAG|"D"F2ED "A"CDEG|"D"F2D2 D2:|
% C:\aaa\ABCcollections\EnglishCountry\ECDmaster.abc


